X: 46
T: Aksaray`da Çevirdiler Yolumu
C: (Anonim)
O: Turkey
F: http://compmusic.upf.edu/node/140
N: dugah--turku--evfer--aksarayda_cevirdiler--
N: makam= dugah
N: form= turku
N: usul= evfer = 9/8
M: 9/8
L: 1/16
K: C _1/4B _7/8d  
Q: 1/4=180
%%MIDI tuningsystem comma53
z4 A2^G2 F4 G2A4 | z4A2 ^G2F4G2 A4  | \
w:   |   | 
z4 A2^G2 F4 G2A4 | z4A2 ^G2F4G2 A4  | 
w:   |   | 
z4 A2B2 c4 c6 | z4c2 d2d2 c2d2 c2B2  | \
w:  Ak sa ray da   |  çe vir di *  ler   | 
z2cd c2B2 A4 B2c4 | 
w:  yo *  *  *  *  lu mu   | 
z2 cdc2 B2A4_7/8B2 A4  | z4 A2^G2 F4 G2A4 | \
w:  yo *  *  *  *  lu mu   |  yo *  *  lu mu    | 
z4A2 B2c4c6  | z4 c2d2 d2c2 d2c2 B2 | 
w:  Dev ri ye ler   |  bağ la dı *  lar   | 
z2 cdc2 B2A4B2 c4  | z2cd c2B2 A4 _7/8B2A4 | \
w:  ko *  *  lu *  mu   |  ko *  *  *  *  lu mu   | 
z4A2 ^G2F4G2 A4  | 
w:  ko *  *  lu mu    | 
z4 A2^G2 F4 G2A4 | z4A2 ^G2F4G2 A4  | \
w:  Ba lat_ uğ ra maz   |  doğ *  ru  Fe ner   | 
z4 A2^G2 F4 G2A4 | z4A2 ^G2F4G2 A4  | 
w:  On  *  pâ re ye   |  na *  ne  şe ker    | 
z4 A2^G2 F4 G2A4 | z4A2 ^G2F4G2 A4  | \
w:  Ba lat_ uğ ra maz   |  doğ *  ru  Fe ner   | 
z4 A2^G2 F4 G2A4 | z4A2 ^G2F4G2 A4  | 
w:  On  *  pâ re ye   |  na *  ne  şe ker    | 
z4 A2^G2 F4 G2A4 | z4A2 ^G2F4G2 A4  | \
w:   |   | 
z4 A2^G2 F4 G2A4 | z4A2 ^G2F4G2 A4  | 
w:   |   | 
z4 A2B2 c4 c6 | z4c2 d2d2 c2d2 c2B2  | \
w:  Ak sa ray da   |  çe vir di *  ler   | 
z2cd c2B2 A4 B2c4 | 
w:  yo *  *  *  *  lu mu   | 
z2 cdc2 B2A4_7/8B2 A4  | z4 A2^G2 F4 G2A4 | \
w:  yo *  *  *  *  lu mu   |  yo *  *  lu mu    | 
z4A2 B2c4c6  | z4 c2d2 d2c2 d2c2 B2 | 
w:  Dev ri ye ler   |  bağ la dı *  lar   | 
z2 cdc2 B2A4B2 c4  | z2cd c2B2 A4 _7/8B2A4 | \
w:  ko *  *  lu *  mu   |  ko *  *  *  *  lu mu   | 
z4A2 ^G2F4G2 A4  | 
w:  ko *  *  lu mu    | 
z4 A2^G2 F4 G2A4 | z4A2 ^G2F4G2 A4  | \
w:  Ba lat_ uğ ra maz   |  doğ *  ru  Fe ner   | 
z4 A2^G2 F4 G2A4 | z4A2 ^G2F4G2 A4  | 
w:  On  *  pâ re ye   |  na *  ne  şe ker    | 
z4 A2^G2 F4 G2A4 | z4A2 ^G2F4G2 A4  | \
w:  Ba lat_ uğ ra maz   |  doğ *  ru  Fe ner   | 
z4 A2^G2 F4 G2A4 | z4A2 ^G2F4G2 A4  | 
w:  On  *  pâ re ye   |  na *  ne  şe ker    | 
|


